public/images/icons/icon_like_outlined.svg

<?xml version="1.0" encoding="UTF-8" standalone="no"?>
<svg
   width="25.122499"
   height="23.642509"
   viewBox="0 0 25.122499 23.642509"
   fill="none"
   version="1.1"
   id="svg5"
   sodipodi:docname="icon_like_outlined.svg"
   xmlns:inkscape="http://www.inkscape.org/namespaces/inkscape"
   xmlns:sodipodi="http://sodipodi.sourceforge.net/DTD/sodipodi-0.dtd"
   xmlns="http://www.w3.org/2000/svg"
   xmlns:svg="http://www.w3.org/2000/svg">
  <defs
     id="defs9" />
  <sodipodi:namedview
     id="namedview7"
     pagecolor="#ffffff"
     bordercolor="#666666"
     borderopacity="1.0"
     inkscape:showpageshadow="2"
     inkscape:pageopacity="0.0"
     inkscape:pagecheckerboard="0"
     inkscape:deskcolor="#d1d1d1"
     showgrid="false" />
  <g
     id="icon_like"
     transform="translate(-2.4375,-3.4047899)">
    <g
       id="Group">
      <path
         id="Vector"
         d="m 15,27.0473 h -0.0175 c -3.2288,-0.06 -12.545,-8.4775 -12.545,-16.45 0,-3.83002 3.15625,-7.19251 6.75375,-7.19251 2.86245,0 4.78745,1.975 5.80745,3.4125 1.0175,-1.435 2.9425,-3.4125 5.8063,-3.4125 3.6,0 6.755,3.3625 6.755,7.19371 0,7.97 -9.3175,16.3875 -12.5463,16.4463 H 15 Z M 9.1925,5.28104 c -2.6,0 -4.87875,2.48499 -4.87875,5.31876 0,7.175 8.79245,14.495 10.68745,14.5725 1.8975,-0.0775 10.6875,-7.3963 10.6875,-14.5725 0,-2.83377 -2.2787,-5.31876 -4.8787,-5.31876 -3.16,0 -4.925,3.67 -4.94,3.70625 -0.2875,0.7025 -1.445,0.7025 -1.7338,0 C 14.1187,8.94979 12.355,5.28104 9.19375,5.28104 Z"
         fill="#657786" />
    </g>
  </g>
</svg>

<svg width="30" height="30" viewBox="0 0 30 30" fill="none" xmlns="http://www.w3.org/2000/svg">
<g id="icon_like">
<g id="Group">
<path id="Vector" d="M15 27.0473H14.9825C11.7537 26.9873 2.4375 18.5698 2.4375 10.5973C2.4375 6.76728 5.59375 3.40479 9.19125 3.40479C12.0537 3.40479 13.9787 5.37979 14.9987 6.81729C16.0162 5.38229 17.9412 3.40479 20.805 3.40479C24.405 3.40479 27.56 6.76729 27.56 10.5985C27.56 18.5685 18.2425 26.986 15.0137 27.0448H15V27.0473ZM9.1925 5.28104C6.5925 5.28104 4.31375 7.76603 4.31375 10.5998C4.31375 17.7748 13.1062 25.0948 15.0012 25.1723C16.8987 25.0948 25.6887 17.776 25.6887 10.5998C25.6887 7.76603 23.41 5.28104 20.81 5.28104C17.65 5.28104 15.885 8.95104 15.87 8.98729C15.5825 9.68979 14.425 9.68979 14.1362 8.98729C14.1187 8.94979 12.355 5.28104 9.19375 5.28104H9.1925Z" fill="#657786"/>
</g>
</g>
</svg>
